Sources/FrostedUI/Resources/Icons.xcassets/gifFilled24.imageset/gif-filled-24.svg

<svg width="24" height="24" viewBox="0 0 24 24" fill="none" xmlns="http://www.w3.org/2000/svg" data-fui-icon="true">
  <path
    d="M12 0C13.9711 0 15.495 -0.000143781 16.7139 0.100586C17.9415 0.202061 18.9265 0.409696 19.8066 0.864258C21.2343 1.60181 22.3982 2.76568 23.1357 4.19336C23.5903 5.07346 23.7979 6.05855 23.8994 7.28613C24.0001 8.50497 24 10.0289 24 12C24 13.9711 24.0001 15.495 23.8994 16.7139C23.7979 17.9415 23.5903 18.9265 23.1357 19.8066C22.3982 21.2343 21.2343 22.3982 19.8066 23.1357C18.9265 23.5903 17.9415 23.7979 16.7139 23.8994C15.495 24.0001 13.9711 24 12 24C10.0289 24 8.50497 24.0001 7.28613 23.8994C6.05855 23.7979 5.07346 23.5903 4.19336 23.1357C2.76568 22.3982 1.60181 21.2343 0.864258 19.8066C0.409696 18.9265 0.202061 17.9415 0.100586 16.7139C-0.000143781 15.495 0 13.9711 0 12C0 10.0289 -0.000143781 8.50497 0.100586 7.28613C0.202061 6.05855 0.409696 5.07346 0.864258 4.19336C1.60181 2.76568 2.76568 1.60181 4.19336 0.864258C5.07346 0.409696 6.05855 0.202061 7.28613 0.100586C8.50497 -0.000143781 10.0289 0 12 0ZM7.25 8C5.45516 8 4.00013 9.45519 4 11.25V12.749C4.00004 14.5439 5.4551 15.999 7.25 15.999H7.7998C9.15285 15.999 10.25 14.9019 10.25 13.5488V12.75C10.2499 12.0598 9.69022 11.5001 9 11.5H7.91699C7.50286 11.5 7.16712 11.8359 7.16699 12.25C7.16712 12.6641 7.50286 13 7.91699 13H8.75V13.5488C8.75 14.0735 8.32442 14.499 7.7998 14.499H7.25C6.28352 14.499 5.50004 13.7155 5.5 12.749V11.25C5.50013 10.2836 6.28358 9.5 7.25 9.5H7.28809C7.87694 9.50003 8.25067 9.73567 8.48633 9.96484C8.60824 10.0835 8.69465 10.203 8.74902 10.29C8.77558 10.3326 8.79367 10.3661 8.80371 10.3857C8.80856 10.3953 8.81154 10.4022 8.8125 10.4043V10.4033L8.84277 10.4648C9.02536 10.7983 9.43429 10.9461 9.79199 10.7949C10.1496 10.6436 10.3289 10.2471 10.2168 9.88379L10.1904 9.81152V9.81055L10.1895 9.80859C10.189 9.80767 10.188 9.80674 10.1875 9.80566C10.1865 9.80322 10.1859 9.7999 10.1846 9.79688C10.1817 9.79049 10.178 9.78234 10.1738 9.77344C10.1655 9.75552 10.1544 9.73221 10.1406 9.70508C10.113 9.65079 10.0737 9.5787 10.0215 9.49512C9.9174 9.32849 9.75787 9.10918 9.53223 8.88965C9.07185 8.44192 8.33843 8.00003 7.28809 8H7.25ZM12.5 8C12.0859 8 11.7501 8.3359 11.75 8.75V15.249C11.75 15.6632 12.0858 15.999 12.5 15.999C12.9142 15.999 13.25 15.6632 13.25 15.249V8.75C13.2499 8.3359 12.9141 8 12.5 8ZM16.25 8C15.5597 8 15.0001 8.55976 15 9.25V15.249C15 15.6632 15.3358 15.999 15.75 15.999C16.1642 15.999 16.5 15.6632 16.5 15.249V12.749H18.71C19.1242 12.749 19.46 12.4132 19.46 11.999C19.4596 11.5851 19.1239 11.249 18.71 11.249H16.5V9.5H19.2471C19.6613 9.5 19.9971 9.16421 19.9971 8.75C19.9969 8.3359 19.6612 8 19.2471 8H16.25Z"
    fill="currentColor"
  />
</svg>

<svg xmlns="http://www.w3.org/2000/svg" width="24" height="24" fill="none" data-fui-icon="true" viewBox="0 0 24 24"><path fill="currentColor" d="M12 0c1.971 0 3.495 0 4.714.1 1.228.102 2.213.31 3.093.764a7.75 7.75 0 0 1 3.329 3.33c.454.88.662 1.865.763 3.092C24 8.505 24 10.03 24 12s0 3.495-.1 4.714c-.102 1.228-.31 2.213-.764 3.093a7.75 7.75 0 0 1-3.33 3.329c-.88.454-1.864.662-3.092.763C15.495 24 13.97 24 12 24s-3.495 0-4.714-.1c-1.227-.102-2.213-.31-3.093-.764a7.75 7.75 0 0 1-3.329-3.33c-.454-.88-.662-1.864-.763-3.092C0 15.495 0 13.97 0 12s0-3.495.1-4.714C.203 6.06.41 5.073.865 4.193A7.75 7.75 0 0 1 4.194.864C5.073.41 6.058.202 7.285.101 8.505 0 10.03 0 12 0M7.25 8A3.25 3.25 0 0 0 4 11.25v1.499a3.25 3.25 0 0 0 3.25 3.25h.55a2.45 2.45 0 0 0 2.45-2.45v-.799c0-.69-.56-1.25-1.25-1.25H7.917a.75.75 0 0 0 0 1.5h.833v.549a.95.95 0 0 1-.95.95h-.55a1.75 1.75 0 0 1-1.75-1.75V11.25c0-.966.784-1.75 1.75-1.75h.038c.589 0 .963.236 1.198.465a1.8 1.8 0 0 1 .318.42q.008.015.008.02v-.002l.03.062a.75.75 0 0 0 1.375-.581l-.027-.072v-.003l-.002-.003q-.002-.004-.003-.01l-.044-.09a3.266 3.266 0 0 0-.608-.815c-.461-.45-1.195-.891-2.245-.891zm5.25 0a.75.75 0 0 0-.75.75v6.499a.75.75 0 0 0 1.5 0V8.75A.75.75 0 0 0 12.5 8m3.75 0C15.56 8 15 8.56 15 9.25v5.999a.75.75 0 0 0 1.5 0v-2.5h2.21a.75.75 0 0 0 0-1.5H16.5V9.5h2.747a.75.75 0 0 0 0-1.5z"/></svg>
